brandFactory_export/1.Light/Buscar_1Light.svg

<?xml version="1.0" encoding="UTF-8"?>
<svg width="24px" height="24px" viewBox="0 0 24 24" version="1.1" xmlns="http://www.w3.org/2000/svg" xmlns:xlink="http://www.w3.org/1999/xlink">
    <title>1.Light/Buscar_1Light</title>
    <g id="Symbols" stroke="none" stroke-width="1" fill="none" fill-rule="evenodd">
        <g id="1.Light/Buscar_1Light" fill="#5CB615" fill-rule="nonzero">
            <path d="M15.9966387,2.73613445 C19.6233334,6.31977258 19.7091541,12.1323665 16.2283758,15.8231835 L23.5294118,23.1226891 C23.6605042,23.2537815 23.6605042,23.4655462 23.5327731,23.5966387 C23.4689076,23.6605042 23.3848739,23.697479 23.2941176,23.697479 C23.2033613,23.697479 23.1193277,23.6605042 23.0554622,23.5966387 L15.7524315,16.2973166 C14.0239108,17.9133667 11.7420607,18.81314 9.37142857,18.8067568 C4.19495798,18.8067568 -1.97744043e-10,14.6117647 -1.97744043e-10,9.43529412 C-1.97744043e-10,6.9512605 0.988235294,4.56806723 2.74285714,2.81008403 C6.38319328,-0.867226891 12.3159664,-0.900840336 15.9966387,2.73613445 Z M9.37142857,0.739459119 C4.56806723,0.739459119 0.672268907,4.63193277 0.672268907,9.43529412 C0.672268907,11.7411765 1.58991597,13.9529412 3.22016807,15.5865546 C6.61512605,18.9848739 12.1243697,18.9848739 15.5193277,15.5865546 C18.9142857,12.1882353 18.9176471,6.68235294 15.5193277,3.28739496 C13.892437,1.65042017 11.6773109,0.732773109 9.37142857,0.739459119 Z" id="Buscar_1Light"></path>
        </g>
    </g>
</svg>

<svg width="24" height="24" viewBox="0 0 24 24" xmlns="http://www.w3.org/2000/svg"><path d="M15.997 2.736c3.626 3.584 3.712 9.396.231 13.087l7.301 7.3a.336.336 0 01-.235.575.336.336 0 01-.239-.101l-7.303-7.3a9.309 9.309 0 01-6.38 2.51A9.37 9.37 0 012.741 2.81C6.384-.867 12.317-.9 15.998 2.736zM9.37.74C4.568.74.672 4.632.672 9.435a8.71 8.71 0 002.548 6.152 8.693 8.693 0 0012.3 0c3.394-3.399 3.398-8.905 0-12.3A8.635 8.635 0 009.37.74z" fill="#5CB615" fill-rule="nonzero"/></svg>
